X:1
T:Se tu m'ami
T:Alessandro Parisotti (1853-1913)
T:alto
T:Se tu m'ami
T:Copyright © 2017 by The Choral Public Domain Library. Edition may be freely distributed, duplicated, performed or recorded.
T:Copyright © 2017 by The Choral Public Domain Library. Edition may be freely distributed, duplicated, performed or recorded.
T:Copyright © 2017 by The Choral Public Domain Library. Edition may be freely distributed, duplicated, performed or recorded.
T:Copyright © 2017 by The Choral Public Domain Library. Edition may be freely distributed, duplicated, performed or recorded.
T:Copyright © 2017 by The Choral Public Domain Library. Edition may be freely distributed, duplicated, performed or recorded.
T:Copyright © 2017 by The Choral Public Domain Library. Edition may be freely distributed, duplicated, performed or recorded.
C:Alessandro Parisotti (1853-1913)
Z:alto
Z:Copyright © 2017 by The Choral Public Domain Library. Edition may be freely distributed, duplicated, performed or recorded.
%%score 1 { ( 2 5 ) | ( 3 4 ) }
L:1/8
Q:1/4=56
M:2/4
K:F
V:1 treble nm="Soprano" snm="Soprano"
V:2 treble nm="Piano" snm="Pno."
V:5 treble 
V:3 bass 
V:4 bass 
V:1
 z4 | z4 | z4 | z4 ||S A2 (B<G) | G2 (A<F) | F E2 G | (F/E/)D (F/E/)D | (F/E/)D (C/B,/)(A,/G,/) | %9
w: ||||Se tu *|m'a- mi *|se tu sos-|pi- * ri Sol * per|me, * gen- til * pas- *|
 !fermata!A,2- A, z | AD DG | G^F AG | GC CF | FE (GF) | (F/d/)(c/B/) AG | (G/c/)(B/A/) GF | %16
w: tor, _|Ho do- lor de'|tuoi mar- ti- ri,|Ho di- let- to|del tuo\_a- mor, _|Ma * se * pen- si|che * so- * let- to|
 (F/B/)(A/G/) F/>E/G- | GF !fermata!E2 | A>E (E/F/)D | A>E (E/F/)D | B(A/G/) FE | E>D D2 | %22
w: Io * ti * deb- ba- ri-|* a- mar,|Pa- sto- rel- * lo,|sei sog- get- * to|Fa- cil- * men- te\_a|t'in- gan- nar;|
 A>E (E/F/)D | A>E (E/F/)D | (E/G/)(B/^c/) (d/A/)(B/G/) | FE D2 | (E/G/)(B/^c/) (d/A/)(B/G/) | %27
w: Pas- to- rel- * lo,|sei sog- get- * to|Fa- * cil- * men- * te\_a *|t'in- gan- nar,|fa- * cil- * men- * te\_a *|
 FE !fermata!D2!fine! |] FF FF | F(E/D/) EC | _EE EE | _E(D/C/) D2 | GA (^F/E/)D | GA (^F/E/)D | %34
w: t'in- gan- nar.|Bel- la ro- sa|por- po- * ri- na|Og- gi Sil- via|sce- glie- * rà,|Con la scu- * sa|del- la spi- * na|
 GB Ac | BA G2 | Ac B(A/G/) | D^F G2 | FF F/F/F- | FF FF | DD DD | DD D2 | GG BB | AE (F/E/)D | %44
w: Do- man poi la|sprez- ze- rà,|do- man poi la *|sprez- ze- rà.|Ma de gli\_uo- mi- ni\il|_ con- si- glio|Io per me non|se- gui- rò.|Non per- ché mi|pia- ce\_il gi- * glio.|
 GG BB | (A/E/)(F/D/) !fermata!E2 | z4 | z4 | z4 | z4!D.S.! |] %50
w: Gli\_al- tri fio- ri|sprez- * ze- * rò.|||||
V:2
 A2 (B<G) | A2 (B<G) | z [A,^CE] z [A,DA] | z [G,A,^C] z !fermata![F,A,D] || z [D,A,D] z [E,B,D] | %5
 z [E,G,^C] z [D,F,D] | z [E,B,D] z [E,A,^C] | z [F,A,D] z [F,A,D] | z [F,A,D] z [D,G,D] | %9
 !fermata![E,A,^C]2- [E,A,C] z | (Dd) (cB/A/) | (G^F) (AG) | (Cc) (BA/G/) | (FE) (GF) | %14
 z [D,F,D] z [C,G,C] | z [C,F,C] z [B,,F,B,] | z [B,,E,B,] z [A,,E,A,] | %17
 z [A,,D,F,] !fermata![A,,^C,E,]2 | z [A,,E,A,] z [A,,F,A,] | z [A,EA] z [A,FA] | %20
 [GB][FA]/[EG]/ .[DF].[DE] | E2 D2 | z [A,,E,A,] z [A,,F,A,] | z [A,EA] z [A,FA] | %24
 z [E,B,^C] [D,A,D][E,B,D] | [F,A,D][E,A,^C] [F,A,D]2 | z [E,B,^C] [D,A,D][E,B,D] | %27
 [F,A,D][E,A,^C] !fermata![F,A,D]2 |] [A,CF]3 [G,DF] | FE/D/ E2 | [G,B,_E]3 [F,CE] | _ED/C/ D2 | %32
 [G,B,G][A,_EA] [A,D^F]2 | [G,B,G][A,_EA] [A,D^F]2 | [DG][DGB] [C_EA]2 | [B,DG][A,D^F] [B,DG]2 | %36
 z [A,_EA] z [B,DG] | z [A,D^F] [B,DG]2 | (Fc) (d/c/B) | (Fc) (d/c/B) | (DA) (B/A/G) | %41
 (DA) (B/A/G) | z [B,G] z [B,FB] | z [A,EA] z [A,DF] | z [B,G] z [B,FB] | %45
 [A,EA][A,DF] !fermata![A,^CE]2 | (Ae) (f/e/d) | (Ae) (f/e/d) | (g/f/e/d/ c/B/A/G/) | %49
 !fermata!A2- A z |] %50
V:3
 z [F,A,] z [D,G,] | z [F,A,] z [D,G,] | G,,>A,, F,,>G,, | E,,>F,, !fermata!D,,2 || F,,2 G,,2 | %5
 A,,2 B,,2 | G,,2 A,,2 | D,2 =C,2 | B,,2 [B,,,B,,]2 | !fermata![A,,,A,,]2- [A,,,A,,] z | %10
 z [A,,D,] z [B,,D,] | z [C,D,^F,] z [D,G,] | z [G,,C,] z [A,,C,] | z [B,,C,E,] z [C,F,] | %14
 B,,2 E,,2 | A,,2 D,,2 | G,,2 ^C,,2 | D,,2 !fermata!A,,,2 | ^C,,2 D,,2 | ^C,2 D,2 | %20
 G,,/^C,/D,/E,/ F,G, | A,A,, D,/F,,/E,,/D,,/ | ^C,,2 D,,2 | ^C,2 D,2 | G,,2 F,,G,, | %25
 A,,A,,,D,,F,, | G,,2 F,,G,, | A,,A,,, !fermata!D,,2 |] F,,G,,A,,=B,, | C,4 | _E,,F,,G,,A,, | %31
 B,,3 D, | _E,C, D,2 | _E,C,D,C, | B,,G,, C,2 | D,D,,G,,B,, | C,2 D,2 | D,,2 G,,2 | %38
 z [C,F,] z [D,F,] | z [C,F,] z [D,F,] | z [A,,D,] z [B,,D,] | z [A,,D,] z [B,,D,] | E,2 D,2 | %43
 ^C,2 D,2 | E,2 D,2 | ^C,D, !fermata!A,,2 | z [E,A,] z [F,A,] | z [E,A,] z [F,A,] | [B,,D,]4 | %49
 !fermata![A,,^C,]2- [A,,C,] z |] %50
V:4
 D,2 B,,2 | D,2 B,,2 | x4 | x4 || x4 | x4 | x4 | x4 | x4 | x4 | ^F,,2 G,,2 | A,,2 B,,2 | %12
 E,,2 F,,2 | G,,2 A,,2 | x4 | x4 | x4 | x4 | x4 | x4 | x4 | x4 | x4 | x4 | x4 | x4 | x4 | x4 |] %28
 x4 | x4 | x4 | x4 | x4 | x4 | x4 | x4 | x4 | x4 | A,,2 B,,2 | A,,2 B,,2 | ^F,,2 G,,2 | %41
 ^F,,2 G,,2 | x4 | x4 | x4 | x4 | ^C,2 D,2 | ^C,2 D,2 | x4 | x4 |] %50
V:5
 x4 | x4 | x4 | x4 || x4 | x4 | x4 | x4 | x4 | x4 | x4 | x4 | x4 | x4 | x4 | x4 | x4 | x4 | x4 | %19
 x4 | x4 | (D^C) x2 | x4 | x4 | x4 | x4 | x4 | x4 |] x4 | [G,C]4 | x4 | [F,B,]3 [F,B,] | x4 | x4 | %34
 x4 | x4 | x4 | x4 | x4 | x4 | x4 | x4 | x4 | x4 | x4 | x4 | x4 | x4 | x4 | x4 |] %50

